flaticon/essential/trash.svg

<svg xmlns="http://www.w3.org/2000/svg" width="32" height="32" viewBox="0 0 24 24">
    <path d="M21.355469 2.441406L15.644531 2.441406C15.597656 1.933594 15.441406 1.074219 14.90625.523438 14.566406.175781 14.136719 0 13.625 0L9.558594 0C9.050781 0 8.621094.175781 8.28125.523438 7.746094 1.074219 7.585938 1.933594 7.542969 2.441406L2.644531 2.441406C2.417969 2.441406 2.238281 2.621094 2.238281 2.847656 2.238281 3.074219 2.417969 3.253906 2.644531 3.253906L21.355469 3.253906C21.582031 3.253906 21.761719 3.074219 21.761719 2.847656 21.761719 2.621094 21.582031 2.441406 21.355469 2.441406zM8.863281 1.089844C9.046875.902344 9.273438.8125 9.558594.8125L13.625.8125C13.910156.8125 14.140625.902344 14.320312 1.089844 14.648438 1.425781 14.78125 2.015625 14.824219 2.441406L8.359375 2.441406C8.40625 2.015625 8.539062 1.425781 8.863281 1.089844zM4.253906 21.976562C4.269531 22.675781 4.703125 24 6.25 24L17.75 24C19.296875 24 19.730469 22.675781 19.746094 21.984375L20.492188 4.066406 3.507812 4.066406zM19.644531 4.882812L18.933594 21.957031C18.929688 22.082031 18.875 23.1875 17.75 23.1875L6.25 23.1875C5.136719 23.1875 5.070312 22.082031 5.066406 21.949219L4.355469 4.882812zM19.644531 4.882812"/>
    <path d="M7.117188 21.964844L16.882812 21.964844C17.105469 21.964844 17.289062 21.785156 17.289062 21.558594 17.289062 21.335938 17.105469 21.152344 16.882812 21.152344L7.117188 21.152344C6.894531 21.152344 6.710938 21.335938 6.710938 21.558594 6.710938 21.785156 6.894531 21.964844 7.117188 21.964844zM7.117188 19.933594L16.882812 19.933594C17.105469 19.933594 17.289062 19.75 17.289062 19.527344 17.289062 19.300781 17.105469 19.117188 16.882812 19.117188L7.117188 19.117188C6.894531 19.117188 6.710938 19.300781 6.710938 19.527344 6.710938 19.75 6.894531 19.933594 7.117188 19.933594zM7.117188 17.898438L16.882812 17.898438C17.105469 17.898438 17.289062 17.714844 17.289062 17.492188 17.289062 17.265625 17.105469 17.085938 16.882812 17.085938L7.117188 17.085938C6.894531 17.085938 6.710938 17.265625 6.710938 17.492188 6.710938 17.714844 6.894531 17.898438 7.117188 17.898438zM7.117188 17.898438"/>
</svg>

<svg xmlns="http://www.w3.org/2000/svg" width="32" height="32" viewBox="0 0 24 24">
    <path d="M21.355 2.441h-5.71c-.047-.507-.204-1.367-.739-1.918-.34-.347-.77-.523-1.281-.523H9.559A1.72 1.72 0 0 0 8.28.523c-.535.551-.695 1.41-.738 1.918H2.645a.403.403 0 0 0-.407.407c0 .226.18.406.407.406h18.71c.227 0 .407-.18.407-.406a.403.403 0 0 0-.407-.407zM8.863 1.09A.921.921 0 0 1 9.56.812h4.066c.285 0 .516.09.695.278.328.336.461.926.504 1.351H8.36c.047-.425.18-1.015.504-1.351zm0 0M4.254 21.977C4.27 22.676 4.704 24 6.25 24h11.5c1.547 0 1.98-1.324 1.996-2.016l.746-17.918H3.508zm15.39-17.094l-.71 17.074c-.004.125-.059 1.23-1.184 1.23H6.25c-1.113 0-1.18-1.105-1.184-1.238l-.71-17.066zm0 0"/>
    <path d="M7.117 21.965h9.766a.406.406 0 1 0 0-.813H7.117a.406.406 0 1 0 0 .813zm0 0M7.117 19.934h9.766a.408.408 0 0 0 0-.817H7.117a.408.408 0 0 0 0 .816zm0 0M7.117 17.898h9.766a.406.406 0 1 0 0-.813H7.117a.406.406 0 1 0 0 .813zm0 0"/>
</svg>
